; G-Code generated by Simplify3D(R) Version 3.0.2
; Nov 13, 2015 at 2:35:36 PM
; Settings Summary
;   processName,Process1
;   applyToModels,treefrog_45_cut
;   profileName,Morgan Pro (modified)
;   profileVersion,2015-11-11 10:53:31
;   baseProfile,
;   printMaterial,PLA
;   printQuality,Medium
;   printExtruders,
;   extruderName,Primary Extruder
;   extruderToolheadNumber,0
;   extruderDiameter,0.4
;   extruderAutoWidth,1
;   extruderWidth,0.48
;   extrusionMultiplier,1
;   extruderUseRetract,1
;   extruderRetractionDistance,10
;   extruderExtraRestartDistance,0
;   extruderRetractionZLift,1
;   extruderRetractionSpeed,2000
;   extruderUseCoasting,1
;   extruderCoastingDistance,0.4
;   extruderUseWipe,0
;   extruderWipeDistance,5
;   primaryExtruder,0
;   layerHeight,0.2
;   topSolidLayers,3
;   bottomSolidLayers,3
;   perimeterOutlines,2
;   printPerimetersInsideOut,1
;   startPointOption,1
;   startPointOriginX,0
;   startPointOriginY,0
;   startPointOriginZ,300
;   sequentialIslands,0
;   spiralVaseMode,0
;   firstLayerHeightPercentage,190
;   firstLayerWidthPercentage,150
;   firstLayerUnderspeed,0.5
;   useRaft,0
;   raftExtruder,0
;   raftLayers,1
;   raftOffset,3
;   raftSeparationDistance,0.14
;   raftInfill,85
;   disableRaftBaseLayers,0
;   useSkirt,1
;   skirtExtruder,0
;   skirtLayers,1
;   skirtOutlines,2
;   skirtOffset,3
;   usePrimePillar,0
;   primePillarExtruder,999
;   primePillarWidth,12
;   primePillarLocation,7
;   primePillarSpeedMultiplier,1
;   useOozeShield,0
;   oozeShieldExtruder,999
;   oozeShieldOffset,2
;   oozeShieldOutlines,1
;   oozeShieldSidewallShape,1
;   oozeShieldSidewallAngle,30
;   oozeShieldSpeedMultiplier,1
;   infillExtruder,0
;   internalInfillPattern,Rectilinear
;   externalInfillPattern,Rectilinear
;   infillPercentage,30
;   outlineOverlapPercentage,15
;   infillExtrusionWidthPercentage,100
;   minInfillLength,5
;   infillLayerInterval,1
;   infillAngles,45,-45
;   overlapInfillAngles,0
;   generateSupport,0
;   supportExtruder,0
;   supportInfillPercentage,30
;   supportExtraInflation,0
;   denseSupportLayers,0
;   denseSupportInfillPercentage,70
;   supportLayerInterval,1
;   supportHorizontalPartOffset,0.3
;   supportUpperSeparationLayers,1
;   supportLowerSeparationLayers,1
;   supportType,0
;   supportGridSpacing,4
;   maxOverhangAngle,70
;   supportAngles,0
;   temperatureName,Primary Extruder
;   temperatureNumber,0
;   temperatureSetpointCount,1
;   temperatureSetpointLayers,1
;   temperatureSetpointTemperatures,200
;   temperatureStabilizeAtStartup,1
;   temperatureHeatedBed,0
;   temperatureRelayBetweenLayers,0
;   temperatureRelayBetweenLoops,0
;   fanLayers,1,10
;   fanSpeeds,0,50
;   blipFanToFullPower,1
;   adjustSpeedForCooling,1
;   minSpeedLayerTime,15
;   minCoolingSpeedSlowdown,20
;   increaseFanForCooling,1
;   minFanLayerTime,10
;   maxCoolingFanSpeed,80
;   increaseFanForBridging,1
;   bridgingFanSpeed,100
;   use5D,1
;   relativeEdistances,0
;   allowEaxisZeroing,1
;   independentExtruderAxes,0
;   includeM10123,0
;   stickySupport,1
;   applyToolheadOffsets,0
;   gcodeXoffset,0
;   gcodeYoffset,0
;   gcodeZoffset,0
;   overrideMachineDefinition,1
;   machineTypeOverride,0
;   strokeXoverride,380
;   strokeYoverride,220
;   strokeZoverride,205
;   originOffsetXoverride,0
;   originOffsetYoverride,0
;   originOffsetZoverride,0
;   homeXdirOverride,-1
;   homeYdirOverride,-1
;   homeZdirOverride,-1
;   flipXoverride,1
;   flipYoverride,-1
;   flipZoverride,1
;   toolheadOffsets,0,0|0,0|0,0|0,0|0,0|0,0
;   overrideFirmwareConfiguration,1
;   firmwareTypeOverride,RepRap (Marlin/Repetier/Sprinter)
;   GPXconfigOverride,r2
;   baudRateOverride,115200
;   overridePrinterModels,1
;   printerModelsOverride
;   startingGcode,M42 ; Switch the Light and Fan on before heating,M104 S[extruder0_temperature],M107 ; start with the fan off,G28 ; home,G0 X0 Y0 Z2.5 F3000 ; move the platform to the heating position,G92 E0 ; zero the extruded length,M109 S[extruder0_temperature] ; wait for temperature,G1 F200 E20 ; extrude 20mm of feed stock,G92 E0 ; zero the extruded length again,G0 Y10 Z10 F5000 ; lift to pull head from puddle ,M117 Printing...
;   layerChangeGcode,
;   retractionGcode,
;   toolChangeGcode,
;   endingGcode,G28        ; home all axis (safe because of Z home to max),M104 S0 ; turn off heaters,M140 S0 ; turn off bed if present,M107      ; turn off print cooling fan,M84 ; disable motors
;   createX3G,0
;   celebration,0
;   celebrationSong,Random Song
;   createMB5G,0
;   postProcessing,
;   defaultSpeed,4000
;   outlineUnderspeed,0.4
;   solidInfillUnderspeed,0.8
;   supportUnderspeed,0.8
;   rapidXYspeed,18000
;   rapidZspeed,1000
;   minBridgingArea,50
;   bridgingExtraInflation,0
;   bridgingExtrusionMultiplier,0.8
;   bridgingSpeedMultiplier,0.5
;   filamentDiameter,1.75
;   filamentPricePerKg,200
;   filamentDensity,1.25
;   useMinPrintHeight,0
;   minPrintHeight,1.53
;   useMaxPrintHeight,0
;   maxPrintHeight,2.4
;   useDiaphragm,0
;   diaphragmLayerInterval,20
;   robustSlicing,1
;   mergeAllIntoSolid,0
;   onlyRetractWhenCrossingOutline,1
;   retractBetweenLayers,0
;   useRetractionMinTravel,1
;   retractionMinTravel,0.02
;   retractWhileWiping,1
;   onlyWipeOutlines,1
;   avoidCrossingOutline,1
;   maxMovementDetourFactor,3
;   toolChangeRetractionDistance,12
;   toolChangeExtraRestartDistance,-0.5
;   toolChangeRetractionSpeed,600
;   allowThinWallGapFill,1
;   thinWallAllowedOverlapPercentage,10
;   horizontalSizeCompensation,0
G90
M82
M106 S0
M42 ; Switch the Light and Fan on before heating
M104 S200
M107 ; start with the fan off
G28 ; home
G0 X0 Y0 Z2.5 F3000 ; move the platform to the heating position
G92 E0 ; zero the extruded length
M109 S200 ; wait for temperature
G1 F200 E20 ; extrude 20mm of feed stock
G92 E0 ; zero the extruded length again
G0 Y10 Z10 F5000 ; lift to pull head from puddle 
M117 Printing...
G92 E0
G1 E-10.0000 F2000
G1 Z1.380 F1000
; layer 1, Z = 0.38
T0
; tool H0.380 W0.720
; skirt
G1 X163.725 Y106.787 F18000
G1 Z0.380 F1000
G1 E0.0000 F600
G92 E0
G1 X163.745 Y106.745 E0.0054 F2000
G1 X164.064 Y106.173 E0.0798
G1 X164.082 Y106.144 E0.0837
G1 X164.264 Y105.881 E0.1201
G1 X164.285 Y105.854 E0.1240
G1 X164.676 Y105.390 E0.1930
G1 X164.699 Y105.364 E0.1969
G1 X164.928 Y105.140 E0.2333
G1 X164.953 Y105.117 E0.2372
G1 X165.312 Y104.827 E0.2898
G1 X165.334 Y104.811 E0.2928
G1 X165.538 Y104.669 E0.3210
G1 X165.560 Y104.655 E0.3241
G1 X166.170 Y104.295 E0.4047
G1 X166.211 Y104.274 E0.4098
G1 X166.598 Y104.107 E0.4578
G1 X166.640 Y104.092 E0.4629
G1 X167.260 Y103.912 E0.5363
G1 X167.291 Y103.905 E0.5400
G1 X167.589 Y103.847 E0.5744
G1 X167.621 Y103.842 E0.5781
G1 X168.245 Y103.778 E0.6495
G1 X168.275 Y103.777 E0.6529
G1 X168.550 Y103.771 E0.6842
G1 X168.580 Y103.772 E0.6876
G1 X169.190 Y103.810 E0.7572
G1 X169.215 Y103.812 E0.7601
G1 X169.449 Y103.843 E0.7869
G1 X169.474 Y103.847 E0.7897
G1 X170.998 Y104.160 E0.9667
G1 X171.347 Y103.049 E1.0991
G1 X171.350 Y103.039 E1.1003
G1 X171.384 Y102.943 E1.1118
G1 X171.387 Y102.933 E1.1131
G1 X172.711 Y99.468 E1.5350
G1 X172.715 Y99.459 E1.5361
G1 X172.749 Y99.377 E1.5463
G1 X172.753 Y99.368 E1.5473
G1 X174.339 Y95.798 E1.9917
G1 X174.343 Y95.788 E1.9929
G1 X174.386 Y95.699 E2.0041
G1 X174.391 Y95.690 E2.0053
G1 X175.024 Y94.464 E2.1623
G1 X175.384 Y93.684 E2.2600
G1 X175.389 Y93.673 E2.2614
G1 X175.440 Y93.572 E2.2743
G1 X175.446 Y93.561 E2.2757
G1 X176.043 Y92.469 E2.4172
G1 X176.047 Y92.462 E2.4182
G1 X176.086 Y92.393 E2.4272
G1 X176.091 Y92.386 E2.4282
G1 X176.622 Y91.514 E2.5443
G1 X176.628 Y91.505 E2.5455
G1 X176.682 Y91.422 E2.5568
G1 X176.688 Y91.413 E2.5580
G1 X177.478 Y90.273 E2.7157
G1 X177.650 Y89.964 E2.7560
G1 X178.064 Y89.035 E2.8718
G1 X178.377 Y88.212 E2.9718
G1 X178.384 Y88.193 E2.9741
G1 X178.462 Y88.020 E2.9957
G1 X178.471 Y88.002 E2.9981
G1 X178.810 Y87.342 E3.0824
G1 X178.826 Y87.316 E3.0859
G1 X178.977 Y87.074 E3.1184
G1 X178.995 Y87.049 E3.1218
G1 X179.653 Y86.176 E3.2462
G1 X179.694 Y86.130 E3.2532
G1 X180.114 Y85.735 E3.3188
G1 X180.162 Y85.697 E3.3258
G1 X180.969 Y85.166 E3.4356
G1 X181.000 Y85.147 E3.4397
G1 X181.297 Y84.992 E3.4779
G1 X181.330 Y84.976 E3.4820
G1 X182.144 Y84.648 E3.5819
G1 X182.198 Y84.631 E3.5883
G1 X182.710 Y84.513 E3.6481
G1 X182.766 Y84.505 E3.6545
G1 X183.783 Y84.432 E3.7705
G1 X183.866 Y84.436 E3.7800
G1 X184.636 Y84.560 E3.8686
G1 X184.716 Y84.583 E3.8781
G1 X184.850 Y84.638 E3.8946
G1 X184.971 Y84.655 E3.9085
G1 X185.055 Y84.678 E3.9185
G1 X185.817 Y84.987 E4.0119
G1 X185.894 Y85.030 E4.0219
G1 X186.859 Y85.732 E4.1577
G1 X186.897 Y85.763 E4.1633
G1 X187.225 Y86.079 E4.2151
G1 X187.258 Y86.115 E4.2207
G1 X187.583 Y86.524 E4.2801
G1 X187.833 Y86.535 E4.3086
G1 X187.963 Y86.494 E4.3241
G1 X187.992 Y86.486 E4.3275
G1 X188.264 Y86.422 E4.3592
G1 X188.293 Y86.416 E4.3626
G1 X188.766 Y86.347 E4.4170
G1 X188.788 Y86.344 E4.4195
G1 X188.989 Y86.327 E4.4425
G1 X189.010 Y86.326 E4.4449
G1 X189.942 Y86.302 E4.5509
G1 X189.951 Y86.301 E4.5519
G1 X190.038 Y86.301 E4.5618
G1 X190.047 Y86.302 E4.5629
G1 X190.989 Y86.326 E4.6700
G1 X191.010 Y86.327 E4.6725
G1 X191.212 Y86.344 E4.6955
G1 X191.234 Y86.347 E4.6980
G1 X191.706 Y86.416 E4.7524
G1 X191.736 Y86.422 E4.7558
G1 X192.007 Y86.485 E4.7875
G1 X192.036 Y86.493 E4.7908
G1 X192.166 Y86.535 E4.8064
G1 X192.431 Y86.523 E4.8366
G1 X192.631 Y86.233 E4.8767
G1 X192.675 Y86.181 E4.8844
G1 X193.129 Y85.733 E4.9569
G1 X193.182 Y85.690 E4.9647
G1 X194.079 Y85.091 E5.0874
G1 X194.118 Y85.068 E5.0926
G1 X194.496 Y84.879 E5.1406
G1 X194.538 Y84.862 E5.1458
G1 X195.452 Y84.540 E5.2560
G1 X195.528 Y84.523 E5.2649
G1 X196.249 Y84.434 E5.3476
G1 X196.327 Y84.433 E5.3564
G1 X197.288 Y84.523 E5.4662
G1 X197.338 Y84.531 E5.4720
G1 X197.797 Y84.640 E5.5256
G1 X197.845 Y84.655 E5.5313
G1 X198.639 Y84.967 E5.6284
G1 X198.672 Y84.982 E5.6325
G1 X198.974 Y85.137 E5.6711
G1 X199.006 Y85.155 E5.6752
G1 X199.816 Y85.681 E5.7852
G1 X199.865 Y85.719 E5.7922
G1 X200.290 Y86.112 E5.8580
G1 X200.331 Y86.158 E5.8651
G1 X200.958 Y86.979 E5.9825
G1 X200.975 Y87.003 E5.9859
G1 X201.124 Y87.236 E6.0174
G1 X201.139 Y87.262 E6.0208
G1 X201.516 Y87.973 E6.1123
G1 X201.525 Y87.993 E6.1148
G1 X201.611 Y88.183 E6.1386
G1 X201.620 Y88.204 E6.1411
G1 X201.936 Y89.035 E6.2422
G1 X202.350 Y89.964 E6.3580
G1 X202.522 Y90.273 E6.3983
G1 X203.312 Y91.413 E6.5560
G1 X203.318 Y91.422 E6.5572
G1 X203.372 Y91.505 E6.5685
G1 X203.378 Y91.514 E6.5697
G1 X203.909 Y92.386 E6.6858
G1 X203.914 Y92.393 E6.6868
G1 X203.953 Y92.462 E6.6958
G1 X203.957 Y92.469 E6.6968
G1 X204.554 Y93.561 E6.8383
G1 X204.560 Y93.572 E6.8397
G1 X204.611 Y93.673 E6.8526
G1 X204.616 Y93.684 E6.8540
G1 X204.976 Y94.464 E6.9517
G1 X205.609 Y95.690 E7.1086
G1 X205.614 Y95.699 E7.1098
G1 X205.657 Y95.788 E7.1211
G1 X205.661 Y95.798 E7.1223
G1 X207.247 Y99.368 E7.5666
G1 X207.251 Y99.377 E7.5677
G1 X207.285 Y99.459 E7.5779
G1 X207.289 Y99.468 E7.5789
G1 X208.611 Y102.927 E8.0002
G1 X208.614 Y102.936 E8.0013
G1 X208.644 Y103.021 E8.0115
G1 X208.647 Y103.030 E8.0125
G1 X209.010 Y104.157 E8.1473
G1 X210.506 Y103.849 E8.3211
G1 X210.531 Y103.845 E8.3239
G1 X210.764 Y103.813 E8.3507
G1 X210.790 Y103.811 E8.3536
G1 X211.409 Y103.772 E8.4243
G1 X211.440 Y103.771 E8.4277
G1 X211.722 Y103.777 E8.4598
G1 X211.752 Y103.779 E8.4633
G1 X212.363 Y103.843 E8.5331
G1 X212.393 Y103.847 E8.5366
G1 X212.674 Y103.901 E8.5691
G1 X212.703 Y103.908 E8.5726
G1 X213.293 Y104.075 E8.6423
G1 X213.329 Y104.087 E8.6466
G1 X213.661 Y104.220 E8.6873
G1 X213.696 Y104.236 E8.6916
G1 X214.230 Y104.519 E8.7604
G1 X214.257 Y104.535 E8.7639
G1 X214.501 Y104.693 E8.7970
G1 X214.527 Y104.711 E8.8006
G1 X215.014 Y105.089 E8.8708
G1 X215.045 Y105.117 E8.8755
G1 X215.322 Y105.389 E8.9197
G1 X215.350 Y105.420 E8.9244
G1 X215.754 Y105.920 E8.9976
G1 X215.776 Y105.949 E9.0017
G1 X215.959 Y106.230 E9.0398
G1 X215.977 Y106.261 E9.0439
G1 X216.256 Y106.796 E9.1125
G1 X216.271 Y106.828 E9.1165
G1 X216.394 Y107.136 E9.1543
G1 X216.406 Y107.170 E9.1583
G1 X216.579 Y107.765 E9.2289
G1 X216.587 Y107.803 E9.2332
G1 X216.650 Y108.154 E9.2739
G1 X216.655 Y108.192 E9.2783
G1 X216.701 Y108.850 E9.3532
G1 X216.702 Y108.883 E9.3570
G1 X216.695 Y109.191 E9.3920
G1 X216.693 Y109.224 E9.3958
G1 X216.621 Y109.850 E9.4675
G1 X216.617 Y109.880 E9.4710
G1 X216.560 Y110.161 E9.5035
G1 X216.553 Y110.190 E9.5070
G1 X216.386 Y110.765 E9.5750
G1 X216.376 Y110.793 E9.5784
G1 X216.276 Y111.054 E9.6102
G1 X216.264 Y111.082 E9.6136
G1 X215.965 Y111.702 E9.6919
G1 X215.943 Y111.741 E9.6971
G1 X215.713 Y112.096 E9.7452
G1 X215.686 Y112.133 E9.7503
G1 X215.194 Y112.716 E9.8371
G1 X215.168 Y112.743 E9.8414
G1 X214.915 Y112.987 E9.8814
G1 X214.886 Y113.011 E9.8857
G1 X214.467 Y113.338 E9.9462
G1 X214.475 Y113.364 E9.9493
G1 X214.485 Y113.396 E9.9531
G1 X214.557 Y113.704 E9.9890
G1 X214.563 Y113.737 E9.9929
G1 X214.657 Y114.413 E10.0705
G1 X214.660 Y114.453 E10.0751
G1 X214.670 Y114.824 E10.1173
G1 X214.669 Y114.863 E10.1218
G1 X214.608 Y115.601 E10.2060
G1 X214.603 Y115.638 E10.2102
G1 X214.540 Y115.975 E10.2493
G1 X214.531 Y116.011 E10.2535
G1 X214.319 Y116.731 E10.3389
G1 X214.305 Y116.770 E10.3435
G1 X214.156 Y117.122 E10.3870
G1 X214.137 Y117.158 E10.3917
G1 X214.049 Y117.314 E10.4120
G1 X214.336 Y117.320 E10.4446
G1 X214.366 Y117.321 E10.4481
G1 X214.649 Y117.351 E10.4805
G1 X214.680 Y117.356 E10.4839
G1 X215.280 Y117.470 E10.5535
G1 X215.311 Y117.478 E10.5571
G1 X215.602 Y117.561 E10.5915
G1 X215.632 Y117.571 E10.5951
G1 X216.245 Y117.807 E10.6699
G1 X216.279 Y117.822 E10.6741
G1 X216.586 Y117.979 E10.7133
G1 X216.618 Y117.997 E10.7175
G1 X217.192 Y118.368 E10.7952
G1 X217.223 Y118.390 E10.7995
G1 X217.500 Y118.614 E10.8401
G1 X217.528 Y118.639 E10.8444
G1 X218.030 Y119.141 E10.9250
G1 X218.055 Y119.169 E10.9294
G1 X218.279 Y119.446 E10.9698
G1 X218.301 Y119.476 E10.9741
G1 X218.732 Y120.143 E11.0644
G1 X218.757 Y120.189 E11.0704
G1 X218.962 Y120.638 E11.1266
G1 X218.980 Y120.688 E11.1326
G1 X219.208 Y121.478 E11.2261
G1 X219.216 Y121.515 E11.2304
G1 X219.278 Y121.869 E11.2713
G1 X219.283 Y121.907 E11.2756
G1 X219.337 Y122.711 E11.3673
G1 X219.337 Y122.757 E11.3725
G1 X219.311 Y123.185 E11.4213
G1 X219.306 Y123.231 E11.4266
G1 X219.150 Y124.047 E11.5211
G1 X219.140 Y124.086 E11.5257
G1 X219.029 Y124.446 E11.5685
G1 X219.015 Y124.483 E11.5730
G1 X218.689 Y125.231 E11.6658
G1 X218.672 Y125.265 E11.6702
G1 X218.493 Y125.579 E11.7113
G1 X218.472 Y125.611 E11.7157
G1 X217.987 Y126.281 E11.8097
G1 X217.960 Y126.315 E11.8147
G1 X217.684 Y126.612 E11.8608
G1 X217.653 Y126.642 E11.8657
G1 X216.999 Y127.197 E11.9632
G1 X216.961 Y127.225 E11.9686
G1 X216.588 Y127.465 E12.0190
G1 X216.547 Y127.488 E12.0244
G1 X216.423 Y127.546 E12.0399
G1 X216.430 Y127.573 E12.0431
G1 X216.545 Y128.263 E12.1226
G1 X216.549 Y128.298 E12.1267
G1 X216.571 Y128.633 E12.1648
G1 X216.572 Y128.669 E12.1689
G1 X216.547 Y129.403 E12.2525
G1 X216.544 Y129.444 E12.2572
G1 X216.487 Y129.823 E12.3008
G1 X216.479 Y129.864 E12.3055
G1 X216.281 Y130.602 E12.3924
G1 X216.270 Y130.636 E12.3965
G1 X216.150 Y130.953 E12.4351
G1 X216.135 Y130.987 E12.4392
G1 X215.794 Y131.670 E12.5262
G1 X215.775 Y131.703 E12.5304
G1 X215.589 Y131.996 E12.5700
G1 X215.567 Y132.026 E12.5742
G1 X215.065 Y132.659 E12.6660
G1 X215.039 Y132.689 E12.6706
G1 X214.779 Y132.952 E12.7126
G1 X214.749 Y132.978 E12.7171
G1 X214.083 Y133.518 E12.8147
G1 X214.046 Y133.544 E12.8199
G1 X213.683 Y133.769 E12.8684
G1 X213.642 Y133.790 E12.8736
G1 X212.833 Y134.158 E12.9748
G1 X212.791 Y134.175 E12.9799
G1 X212.383 Y134.301 E13.0285
G1 X212.339 Y134.311 E13.0337
G1 X211.507 Y134.457 E13.1297
G1 X211.472 Y134.461 E13.1337
G1 X211.142 Y134.486 E13.1714
G1 X211.106 Y134.487 E13.1754
G1 X210.306 Y134.468 E13.2664
G1 X210.268 Y134.465 E13.2709
G1 X209.909 Y134.418 E13.3121
G1 X209.870 Y134.410 E13.3165
G1 X209.104 Y134.224 E13.4062
G1 X209.067 Y134.213 E13.4105
G1 X208.734 Y134.093 E13.4508
G1 X208.699 Y134.079 E13.4551
G1 X207.996 Y133.739 E13.5440
G1 X207.959 Y133.719 E13.5487
G1 X207.631 Y133.510 E13.5930
