; G-Code generated by Simplify3D(R) Version 3.0.2
; Sep 14, 2015 at 8:51:59 AM
; Settings Summary
;   processName,Process1
;   applyToModels,SCARA-CAL_65_150
;   profileName,Morgan Pro
;   profileVersion,2015-08-21 10:55:22
;   baseProfile,
;   printMaterial,PLA
;   printQuality,Fast
;   printExtruders,
;   extruderName,Primary Extruder
;   extruderToolheadNumber,0
;   extruderDiameter,0.4
;   extruderAutoWidth,0
;   extruderWidth,0.4
;   extrusionMultiplier,1
;   extruderUseRetract,1
;   extruderRetractionDistance,6
;   extruderExtraRestartDistance,0
;   extruderRetractionZLift,0.1
;   extruderRetractionSpeed,1800
;   extruderUseCoasting,0
;   extruderCoastingDistance,0.2
;   extruderUseWipe,0
;   extruderWipeDistance,5
;   primaryExtruder,0
;   layerHeight,0.3
;   topSolidLayers,3
;   bottomSolidLayers,3
;   perimeterOutlines,2
;   printPerimetersInsideOut,1
;   startPointOption,2
;   startPointOriginX,0
;   startPointOriginY,0
;   startPointOriginZ,300
;   sequentialIslands,0
;   spiralVaseMode,0
;   firstLayerHeightPercentage,66
;   firstLayerWidthPercentage,200
;   firstLayerUnderspeed,0.5
;   useRaft,0
;   raftExtruder,0
;   raftLayers,1
;   raftOffset,3
;   raftSeparationDistance,0.14
;   raftInfill,85
;   disableRaftBaseLayers,0
;   useSkirt,1
;   skirtExtruder,0
;   skirtLayers,1
;   skirtOutlines,2
;   skirtOffset,3
;   usePrimePillar,0
;   primePillarExtruder,999
;   primePillarWidth,12
;   primePillarLocation,7
;   primePillarSpeedMultiplier,1
;   useOozeShield,0
;   oozeShieldExtruder,999
;   oozeShieldOffset,2
;   oozeShieldOutlines,1
;   oozeShieldSidewallShape,1
;   oozeShieldSidewallAngle,30
;   oozeShieldSpeedMultiplier,1
;   infillExtruder,0
;   internalInfillPattern,Rectilinear
;   externalInfillPattern,Rectilinear
;   infillPercentage,15
;   outlineOverlapPercentage,15
;   infillExtrusionWidthPercentage,100
;   minInfillLength,5
;   infillLayerInterval,1
;   infillAngles,45,-45
;   overlapInfillAngles,0
;   generateSupport,0
;   supportExtruder,0
;   supportInfillPercentage,25
;   supportExtraInflation,0
;   denseSupportLayers,0
;   denseSupportInfillPercentage,70
;   supportLayerInterval,1
;   supportHorizontalPartOffset,0.3
;   supportUpperSeparationLayers,1
;   supportLowerSeparationLayers,1
;   supportType,0
;   supportGridSpacing,4
;   maxOverhangAngle,60
;   supportAngles,0
;   temperatureName,Primary Extruder
;   temperatureNumber,0
;   temperatureSetpointCount,2
;   temperatureSetpointLayers,1,2
;   temperatureSetpointTemperatures,210,200
;   temperatureStabilizeAtStartup,1
;   temperatureHeatedBed,0
;   temperatureRelayBetweenLayers,0
;   temperatureRelayBetweenLoops,0
;   fanLayers,1,10
;   fanSpeeds,0,60
;   blipFanToFullPower,1
;   adjustSpeedForCooling,1
;   minSpeedLayerTime,15
;   minCoolingSpeedSlowdown,20
;   increaseFanForCooling,1
;   minFanLayerTime,10
;   maxCoolingFanSpeed,80
;   increaseFanForBridging,1
;   bridgingFanSpeed,100
;   use5D,1
;   relativeEdistances,0
;   allowEaxisZeroing,1
;   independentExtruderAxes,0
;   includeM10123,0
;   stickySupport,1
;   applyToolheadOffsets,0
;   gcodeXoffset,0
;   gcodeYoffset,0
;   gcodeZoffset,0
;   overrideMachineDefinition,1
;   machineTypeOverride,0
;   strokeXoverride,380
;   strokeYoverride,220
;   strokeZoverride,205
;   originOffsetXoverride,0
;   originOffsetYoverride,0
;   originOffsetZoverride,0
;   homeXdirOverride,-1
;   homeYdirOverride,-1
;   homeZdirOverride,-1
;   flipXoverride,1
;   flipYoverride,-1
;   flipZoverride,1
;   toolheadOffsets,0,0|0,0|0,0|0,0|0,0|0,0
;   overrideFirmwareConfiguration,1
;   firmwareTypeOverride,RepRap (Marlin/Repetier/Sprinter)
;   GPXconfigOverride,r2
;   baudRateOverride,115200
;   overridePrinterModels,1
;   printerModelsOverride
;   startingGcode,M42 ; Switch the Light and Fan on before heating,M104 S[extruder0_temperature],M107 ; start with the fan off,G28 ; home,G0 X0 Y0 Z2.5 F3000 ; move the platform to the heating position,G92 E0 ; zero the extruded length,M109 S[extruder0_temperature] ; wait for temperature,G1 F200 E20 ; extrude 20mm of feed stock,G92 E0 ; zero the extruded length again,G0 Y10 Z10 F5000 ; lift to pull head from puddle ,M117 Printing...
;   layerChangeGcode,
;   retractionGcode,
;   toolChangeGcode,
;   endingGcode,G28        ; home all axis (safe because of Z home to max),M104 S0 ; turn off heaters,M140 S0 ; turn off bed if present,M107      ; turn off print cooling fan,M84 ; disable motors
;   createX3G,0
;   celebration,0
;   celebrationSong,Random Song
;   createMB5G,0
;   postProcessing,
;   defaultSpeed,3000
;   outlineUnderspeed,0.4
;   solidInfillUnderspeed,0.8
;   supportUnderspeed,0.8
;   rapidXYspeed,9000
;   rapidZspeed,1000
;   minBridgingArea,50
;   bridgingExtraInflation,0
;   bridgingExtrusionMultiplier,1
;   bridgingSpeedMultiplier,0.5
;   filamentDiameter,1.75
;   filamentPricePerKg,200
;   filamentDensity,1.25
;   useMinPrintHeight,0
;   minPrintHeight,0
;   useMaxPrintHeight,0
;   maxPrintHeight,0
;   useDiaphragm,0
;   diaphragmLayerInterval,20
;   robustSlicing,1
;   mergeAllIntoSolid,0
;   onlyRetractWhenCrossingOutline,1
;   retractBetweenLayers,0
;   useRetractionMinTravel,1
;   retractionMinTravel,0.02
;   retractWhileWiping,1
;   onlyWipeOutlines,1
;   avoidCrossingOutline,1
;   maxMovementDetourFactor,3
;   toolChangeRetractionDistance,12
;   toolChangeExtraRestartDistance,-0.5
;   toolChangeRetractionSpeed,600
;   allowThinWallGapFill,1
;   thinWallAllowedOverlapPercentage,10
;   horizontalSizeCompensation,0
G90
M82
M106 S0
M42 ; Switch the Light and Fan on before heating
M104 S210
M107 ; start with the fan off
G28 ; home
G0 X0 Y0 Z2.5 F3000 ; move the platform to the heating position
G92 E0 ; zero the extruded length
M109 S210 ; wait for temperature
G1 F200 E20 ; extrude 20mm of feed stock
G92 E0 ; zero the extruded length again
G0 Y10 Z10 F5000 ; lift to pull head from puddle 
M117 Printing...
G92 E0
G1 E-6.0000 F1800
G1 Z0.298 F1000
; layer 1, Z = 0.198
T0
; tool H0.300 W0.800
; skirt
G1 X111.491 Y105.417 F9000
G1 Z0.198 F1000
G1 E0.0000 F540
G92 E0
G1 X113.417 Y103.491 E0.2718 F1500
G1 X113.638 Y103.400 E0.2956
G1 X178.309 Y103.400 E6.7485
G1 X178.070 Y102.996 E6.7953
G1 X178.065 Y102.988 E6.7962
G1 X178.015 Y102.897 E6.8066
G1 X178.011 Y102.889 E6.8075
G1 X173.600 Y94.232 E7.7769
G1 X173.596 Y94.224 E7.7779
G1 X173.552 Y94.130 E7.7882
G1 X173.548 Y94.121 E7.7892
G1 X169.690 Y85.205 E8.7586
G1 X169.686 Y85.197 E8.7595
G1 X169.648 Y85.100 E8.7698
G1 X169.645 Y85.091 E8.7708
G1 X166.353 Y75.949 E9.7403
G1 X166.350 Y75.940 E9.7413
G1 X166.317 Y75.838 E9.7520
G1 X166.314 Y75.829 E9.7529
G1 X163.255 Y65.225 E10.8541
G1 X163.262 Y65.033 E10.8733
G1 X164.011 Y63.005 E11.0891
G1 X164.130 Y62.854 E11.1082
G1 X171.828 Y57.785 E12.0279
G1 X172.123 Y57.756 E12.0574
G1 X175.316 Y59.047 E12.4012
G1 X175.508 Y59.272 E12.4307
G1 X176.377 Y63.162 E12.8283
G1 X178.890 Y71.812 E13.7272
G1 X181.942 Y80.288 E14.6261
G1 X183.400 Y83.658 E14.9924
G1 X183.400 Y33.638 E19.9835
G1 X183.491 Y33.417 E20.0073
G1 X185.417 Y31.491 E20.2791
G1 X185.638 Y31.400 E20.3029
G1 X194.362 Y31.400 E21.1734
G1 X194.583 Y31.491 E21.1972
G1 X196.509 Y33.417 E21.4690
G1 X196.600 Y33.638 E21.4928
G1 X196.600 Y83.658 E26.4839
G1 X198.058 Y80.288 E26.8502
G1 X201.110 Y71.812 E27.7491
G1 X203.623 Y63.162 E28.6480
G1 X204.492 Y59.272 E29.0456
G1 X204.684 Y59.047 E29.0751
G1 X207.877 Y57.756 E29.4189
G1 X208.172 Y57.785 E29.4484
G1 X215.823 Y62.824 E30.3626
G1 X215.939 Y62.965 E30.3808
G1 X216.709 Y64.868 E30.5856
G1 X216.724 Y65.050 E30.6038
G1 X216.427 Y66.378 E30.7396
G1 X216.425 Y66.387 E30.7405
G1 X216.399 Y66.488 E30.7509
G1 X216.396 Y66.497 E30.7518
G1 X213.684 Y75.834 E31.7220
G1 X213.681 Y75.843 E31.7229
G1 X213.649 Y75.941 E31.7333
G1 X213.646 Y75.950 E31.7342
G1 X210.355 Y85.091 E32.7036
G1 X210.352 Y85.100 E32.7045
G1 X210.314 Y85.197 E32.7149
G1 X210.310 Y85.205 E32.7158
G1 X206.452 Y94.121 E33.6852
G1 X206.448 Y94.130 E33.6862
G1 X206.404 Y94.224 E33.6965
G1 X206.400 Y94.232 E33.6975
G1 X201.989 Y102.889 E34.6669
G1 X201.985 Y102.897 E34.6678
G1 X201.935 Y102.988 E34.6782
G1 X201.930 Y102.996 E34.6791
G1 X201.691 Y103.400 E34.7259
G1 X266.362 Y103.400 E41.1788
G1 X266.583 Y103.491 E41.2026
G1 X268.509 Y105.417 E41.4744
G1 X268.600 Y105.638 E41.4982
G1 X268.600 Y114.362 E42.3687
G1 X268.509 Y114.583 E42.3925
G1 X266.583 Y116.509 E42.6643
G1 X266.362 Y116.600 E42.6881
G1 X202.992 Y116.600 E49.0112
G1 X204.780 Y118.905 E49.3023
G1 X210.737 Y125.663 E50.2012
G1 X217.107 Y132.032 E51.1000
G1 X223.865 Y137.990 E51.9990
G1 X230.903 Y143.450 E52.8878
G1 X231.025 Y143.713 E52.9167
G1 X230.895 Y147.086 E53.2535
G1 X230.752 Y147.338 E53.2825
G1 X223.169 Y152.333 E54.1885
G1 X222.988 Y152.383 E54.2073
G1 X220.876 Y152.301 E54.4181
G1 X220.700 Y152.237 E54.4369
G1 X215.497 Y148.202 E55.0938
G1 X215.489 Y148.196 E55.0948
G1 X215.409 Y148.130 E55.1051
G1 X215.402 Y148.124 E55.1061
G1 X208.115 Y141.698 E56.0755
G1 X208.108 Y141.692 E56.0765
G1 X208.032 Y141.621 E56.0868
G1 X208.025 Y141.614 E56.0877
G1 X201.156 Y134.745 E57.0571
G1 X201.149 Y134.738 E57.0580
G1 X201.078 Y134.663 E57.0684
G1 X201.072 Y134.656 E57.0693
G1 X196.600 Y129.583 E57.7440
G1 X196.600 Y186.362 E63.4094
G1 X196.509 Y186.583 E63.4333
G1 X194.583 Y188.509 E63.7051
G1 X194.362 Y188.600 E63.7289
G1 X185.638 Y188.600 E64.5994
G1 X185.417 Y188.509 E64.6232
G1 X183.491 Y186.583 E64.8950
G1 X183.400 Y186.362 E64.9188
G1 X183.400 Y129.583 E70.5842
G1 X178.928 Y134.656 E71.2589
G1 X178.922 Y134.663 E71.2598
G1 X178.851 Y134.738 E71.2702
G1 X178.844 Y134.745 E71.2711
G1 X171.975 Y141.614 E72.2405
G1 X171.968 Y141.621 E72.2414
G1 X171.892 Y141.692 E72.2518
G1 X171.885 Y141.698 E72.2527
G1 X164.598 Y148.124 E73.2221
G1 X164.591 Y148.130 E73.2231
G1 X164.511 Y148.196 E73.2334
G1 X164.503 Y148.202 E73.2344
G1 X159.300 Y152.237 E73.8914
G1 X159.124 Y152.301 E73.9101
G1 X157.012 Y152.383 E74.1210
G1 X156.831 Y152.333 E74.1397
G1 X149.248 Y147.338 E75.0458
G1 X149.105 Y147.086 E75.0747
G1 X148.974 Y143.713 E75.4115
G1 X149.097 Y143.450 E75.4405
G1 X156.135 Y137.990 E76.3293
G1 X162.893 Y132.032 E77.2282
G1 X169.263 Y125.663 E78.1270
G1 X175.220 Y118.905 E79.0259
G1 X177.008 Y116.600 E79.3170
G1 X113.638 Y116.600 E85.6401
G1 X113.417 Y116.509 E85.6639
G1 X111.491 Y114.583 E85.9357
G1 X111.400 Y114.362 E85.9595
G1 X111.400 Y105.638 E86.8300
G1 X111.491 Y105.417 E86.8538
G1 X111.830 Y105.644 F9000
G92 E0
G1 X113.644 Y103.830 E0.2559 F1500
G1 X113.718 Y103.800 E0.2639
G1 X179.010 Y103.800 E6.7788
G1 X178.416 Y102.795 E6.8952
G1 X178.414 Y102.793 E6.8956
G1 X178.367 Y102.707 E6.9053
G1 X178.366 Y102.704 E6.9056
G1 X173.958 Y94.054 E7.8744
G1 X173.957 Y94.051 E7.8747
G1 X173.915 Y93.963 E7.8844
G1 X173.914 Y93.960 E7.8847
G1 X170.058 Y85.049 E8.8535
G1 X170.057 Y85.046 E8.8538
G1 X170.021 Y84.956 E8.8635
G1 X170.020 Y84.953 E8.8638
G1 X166.731 Y75.816 E9.8327
G1 X166.730 Y75.813 E9.8331
G1 X166.699 Y75.718 E9.8431
G1 X166.698 Y75.715 E9.8434
G1 X163.657 Y65.176 E10.9379
G1 X163.659 Y65.112 E10.9443
G1 X164.364 Y63.203 E11.1473
G1 X164.404 Y63.153 E11.1537
G1 X171.966 Y58.173 E12.0571
G1 X172.064 Y58.163 E12.0670
G1 X175.075 Y59.381 E12.3910
G1 X175.139 Y59.456 E12.4009
G1 X175.989 Y63.261 E12.7899
G1 X178.510 Y71.936 E13.6913
G1 X181.570 Y80.436 E14.5927
G1 X183.800 Y85.590 E15.1530
G1 X183.800 Y33.718 E20.3289
G1 X183.830 Y33.644 E20.3368
G1 X185.644 Y31.830 E20.5927
G1 X185.718 Y31.800 E20.6007
G1 X194.282 Y31.800 E21.4553
G1 X194.356 Y31.830 E21.4632
G1 X196.170 Y33.644 E21.7191
G1 X196.200 Y33.718 E21.7271
G1 X196.200 Y85.590 E26.9029
G1 X198.430 Y80.436 E27.4633
G1 X201.490 Y71.936 E28.3647
G1 X204.011 Y63.261 E29.2660
G1 X204.861 Y59.456 E29.6551
G1 X204.925 Y59.381 E29.6649
G1 X207.936 Y58.163 E29.9890
G1 X208.034 Y58.173 E29.9988
G1 X215.553 Y63.125 E30.8971
G1 X215.591 Y63.172 E30.9032
G1 X216.315 Y64.961 E31.0958
G1 X216.320 Y65.022 E31.1019
G1 X216.037 Y66.288 E31.2313
G1 X216.036 Y66.291 E31.2316
G1 X216.012 Y66.385 E31.2413
G1 X216.011 Y66.388 E31.2417
G1 X213.301 Y75.719 E32.2112
G1 X213.300 Y75.722 E32.2115
G1 X213.270 Y75.815 E32.2212
G1 X213.269 Y75.818 E32.2215
G1 X209.980 Y84.953 E33.1903
G1 X209.979 Y84.956 E33.1906
G1 X209.943 Y85.046 E33.2003
G1 X209.942 Y85.049 E33.2006
G1 X206.086 Y93.960 E34.1694
G1 X206.085 Y93.963 E34.1697
G1 X206.043 Y94.051 E34.1794
G1 X206.042 Y94.054 E34.1798
G1 X201.634 Y102.704 E35.1485
G1 X201.633 Y102.707 E35.1488
G1 X201.586 Y102.793 E35.1586
G1 X201.584 Y102.795 E35.1589
G1 X200.990 Y103.800 E35.2753
G1 X266.282 Y103.800 E41.7903
G1 X266.356 Y103.830 E41.7982
G1 X268.170 Y105.644 E42.0541
G1 X268.200 Y105.718 E42.0621
G1 X268.200 Y114.282 E42.9167
G1 X268.170 Y114.356 E42.9246
G1 X266.356 Y116.170 E43.1805
G1 X266.282 Y116.200 E43.1885
G1 X202.175 Y116.200 E49.5851
G1 X204.471 Y119.160 E49.9589
G1 X210.445 Y125.936 E50.8603
G1 X216.833 Y132.324 E51.7617
G1 X223.610 Y138.298 E52.6631
G1 X230.581 Y143.707 E53.5435
G1 X230.622 Y143.794 E53.5531
G1 X230.499 Y146.973 E53.8706
G1 X230.451 Y147.058 E53.8802
G1 X223.001 Y151.964 E54.7704
G1 X222.941 Y151.981 E54.7766
G1 X220.954 Y151.904 E54.9750
G1 X220.895 Y151.883 E54.9812
G1 X215.744 Y147.888 E55.6316
G1 X215.742 Y147.886 E55.6320
G1 X215.667 Y147.824 E55.6417
G1 X215.664 Y147.821 E55.6420
G1 X208.381 Y141.400 E56.6108
G1 X208.379 Y141.398 E56.6111
G1 X208.308 Y141.331 E56.6208
G1 X208.306 Y141.329 E56.6212
G1 X201.441 Y134.464 E57.5899
G1 X201.438 Y134.462 E57.5902
G1 X201.372 Y134.391 E57.5999
G1 X201.370 Y134.389 E57.6003
G1 X196.200 Y128.525 E58.3803
G1 X196.200 Y186.282 E64.1433
G1 X196.170 Y186.356 E64.1513
G1 X194.356 Y188.170 E64.4072
G1 X194.282 Y188.200 E64.4151
G1 X185.718 Y188.200 E65.2698
G1 X185.644 Y188.170 E65.2777
G1 X183.830 Y186.356 E65.5336
G1 X183.800 Y186.282 E65.5416
G1 X183.800 Y128.525 E71.3046
G1 X178.630 Y134.389 E72.0847
G1 X178.628 Y134.391 E72.0850
G1 X178.562 Y134.462 E72.0947
G1 X178.559 Y134.464 E72.0950
G1 X171.694 Y141.329 E73.0637
G1 X171.692 Y141.331 E73.0641
G1 X171.621 Y141.398 E73.0738
G1 X171.619 Y141.400 E73.0741
G1 X164.336 Y147.821 E74.0429
G1 X164.333 Y147.824 E74.0432
G1 X164.258 Y147.886 E74.0529
G1 X164.256 Y147.888 E74.0533
G1 X159.105 Y151.883 E74.7037
G1 X159.046 Y151.904 E74.7099
G1 X157.059 Y151.981 E74.9083
G1 X156.999 Y151.964 E74.9145
G1 X149.549 Y147.058 E75.8047
G1 X149.501 Y146.973 E75.8143
G1 X149.378 Y143.794 E76.1318
G1 X149.419 Y143.707 E76.1414
G1 X156.390 Y138.298 E77.0219
G1 X163.167 Y132.324 E77.9232
G1 X169.555 Y125.936 E78.8246
G1 X175.529 Y119.160 E79.7260
G1 X177.825 Y116.200 E80.0998
G1 X113.718 Y116.200 E86.4964
G1 X113.644 Y116.170 E86.5044
G1 X111.830 Y114.356 E86.7603
G1 X111.800 Y114.282 E86.7682
G1 X111.800 Y105.718 E87.6228
G1 X111.830 Y105.644 E87.6308
; inner perimeter
G1 X116.200 Y108.200 F9000
G92 E0
G1 X186.724 Y108.200 E7.0369 F1050
G1 X182.247 Y100.630 E7.9145
G1 X177.918 Y92.133 E8.8660
G1 X174.131 Y83.381 E9.8175
G1 X170.900 Y74.409 E10.7691
G1 X168.397 Y65.792 E11.6644
G1 X171.578 Y63.697 E12.0445
G1 X171.725 Y64.356 E12.1118
G1 X174.323 Y73.296 E13.0408
G1 X177.477 Y82.056 E13.9698
G1 X181.174 Y90.601 E14.8988
G1 X185.401 Y98.896 E15.8277
G1 X188.200 Y103.629 E16.3764
G1 X188.200 Y36.200 E23.1046
G1 X191.800 Y36.200 E23.4638
G1 X191.800 Y103.630 E30.1919
G1 X194.599 Y98.896 E30.7406
G1 X198.826 Y90.601 E31.6696
G1 X202.523 Y82.056 E32.5986
G1 X205.677 Y73.296 E33.5275
G1 X208.275 Y64.356 E34.4565
G1 X208.422 Y63.697 E34.5239
G1 X211.603 Y65.792 E34.9039
G1 X209.100 Y74.409 E35.7992
G1 X205.869 Y83.381 E36.7508
G1 X202.082 Y92.133 E37.7023
G1 X197.753 Y100.630 E38.6538
G1 X193.276 Y108.200 E39.5314
G1 X263.800 Y108.200 E46.5683
G1 X263.800 Y111.800 E46.9275
G1 X193.463 Y111.800 E53.9458
G1 X195.373 Y114.610 E54.2848
G1 X201.080 Y121.966 E55.2138
G1 X207.236 Y128.950 E56.1428
G1 X213.820 Y135.533 E57.0717
G1 X220.803 Y141.690 E58.0007
G1 X225.302 Y145.180 E58.5688
G1 X222.128 Y147.271 E58.9481
G1 X218.509 Y144.464 E59.4050
G1 X211.356 Y138.157 E60.3566
G1 X204.613 Y131.414 E61.3081
G1 X198.307 Y124.261 E62.2597
